X:1
T:Rondeau
T:Rondeau
T:Jaques Champion de Chambonnières (1602 - 1672)
C:Jaques Champion de Chambonnières (1602 - 1672)
%%score { ( 1 4 ) | ( 2 3 5 ) }
L:1/8
Q:1/2=58
M:2/2
K:F
V:1 treble nm="Cembalo" snm="Cbl."
V:4 treble 
V:2 bass 
V:3 bass 
V:5 bass 
V:1
 [CFA]4 |S G2 GA/B/ | G3 F G2 G2 | %3
 [CFA]4[Q:1/2=58] G2[Q:1/2=57]"^.9" G[Q:1/2=57]"^.8"A/[Q:1/2=57]"^.7"B/ | %4
[Q:1/2=57]"^.5" G3[Q:1/2=56]"^.2" F[Q:1/2=55]"^.5" F4[Q:1/2=56]"^.8"!fine! || %5
[Q:1/2=58]"^(1er couplet)" A2 A>B c2 c2 | d2 c2 f2 e2 | ef f3/2e/4f/4 g2 f>e | d>c d>g e2 c2 | %9
 f3 _e d2 cd/e/ | Pc3 B B4 | A3 B c2 c2 | %12
 c3[Q:1/2=57]"^.1" B[Q:1/2=56]"^.1" A2[Q:1/2=57]"^.6"[Q:1/2=53] G2 ||[Q:1/2=58] [CFA]4 | %14
"^(2eme couplet)" f2 f>g e3 f | f2 g3/2f/4g/4 a2 d2 | d3 e ^c2 fg | Pe3 d d4 | A3 G A=B c2 | %19
 =B2 cd d2 c2 | c2 f2 d2 e2 |[Q:1/2=57]"^.3" ^c2[Q:1/2=54]"^.2" d2 e4 |[Q:1/2=58] [DFA]4!D.S.! | %23
V:2
 F,4 | z D, G,2 | C,4- C,2 C,B,, | [C,F,]4 z D, G,2 | C,4- C,4 || z2 C2 C>B, A,2 | %6
 G,2 A,2 A,>=B, C>G,- | [G,C]4 C4- | C2 =B,2 C4 | C4 F,2 G,2 | F,4- F,2 F,2- | F,2 F,4 C,2- | %12
 F,4- F,2 E,2 || [F,,C,F,]4 | z A,- [A,-C]2 C2 C2- | C2 C2- CG, A,2 | z A, B,2 A,4- | A,2 A,4 A,2 | %18
 D4 C2 C2 | D2 [CE]2 G,4 | C4 F,2 G,2 | E,2 [D,F,A,]2 [A,,^C,E,A,]4 | D,4 | %23
V:3
 [F,,C,]4 | B,,4 | C,4 C,,4 | A,,G,, F,,2 B,,4 | C,2 C,,2 F,,4 || F,4 E,2 F,2 | %6
 B,,2 A,,2 D,2 C,2- | C,2 D,2 E,2 F,2 | G,4 [C,G,]4 | [A,,F,]4 B,,2 _E,2 | F,2 F,,2 B,,3 C, | %11
 D,4 A,,4- | A,,2 B,,2 C,4 || x4 | F,4 C,3 D, | E,4 F,4 | G,4 A,2 D,2 | A,,4 D,4- | %18
 D,2 D,E, F,G, A,2 | G,4 G,,2 C,2 | [A,,F,]4 B,,2 G,,2 | A,,4 x4 | x4 | %23
V:4
 x4 | D4 | E3 D E2 [CE]2 | x4 D4 | E4 [A,C]4 || z2 F2 G2 F2 | B2 x6 | x2 x-x/ x9/2 | x8 | x8 | %10
 A4 [DF]4 | F4 x4 | x8 || x4 | [Ac]2 c2 c4 | x2 x-x/ x9/2 | x8 | ^c4 [FA]4 | F4 F2 E^F | %19
 G2 G2 =B2 c2 | x8 | x8 | x4 | %23
V:5
 x4 | x4 | x8 | x8 | x8 || x8 | x8 | x4 G,2 A,2 | x8 | x8 | x8 | x8 | C,2 D,2 x4 || x4 | %14
 x4 A, G,3 | z G,3 x4 | x8 | x8 | x8 | x8 | x8 | x8 | x4 | %23

